communes/5582.svg

<?xml version="1.0" encoding="UTF-8"?>
<svg version="1.0" viewBox="0 0 603 763" xmlns="http://www.w3.org/2000/svg" xmlns:xlink="http://www.w3.org/1999/xlink">
<defs>
<radialGradient id="a" cx="858.04" cy="579.93" r="300" gradientTransform="matrix(1.215 0 0 1.2667 -839.19 -490.49)" gradientUnits="userSpaceOnUse">
<stop stop-color="#fff" stop-opacity=".31373" offset="0"/>
<stop stop-color="#fff" stop-opacity=".25098" offset=".19"/>
<stop stop-color="#6b6b6b" stop-opacity=".12549" offset=".6"/>
<stop stop-opacity=".12549" offset="1"/>
</radialGradient>
</defs>
<desc>Coat of Arms of Canton of Freiburg (Fribourg)</desc>
<g>
<path d="m1.5 1.5v458.87c0 166.31 134.31 301.13 300 301.13 165.69 0 300-134.82 300-301.13v-458.87h-600z" fill="#fff"/>
<path d="m1.5 251.19v209.18c0 166.31 134.31 301.13 300 301.13 165.69 0 300-134.82 300-301.13v-209.18h-600z" fill="#e20909"/>
<path d="m201.5 251.19v152.96c0 55.438 44.771 100.38 100 100.38s100-44.939 100-100.38v-152.96h-200z" fill="#fff"/>
<path d="m301.5 373.02h100v-121.83l-100 121.83zm-99.999-121.83 100 121.83v-121.83h-100zm99.999 253.33c31.288 0 59.219-14.429 77.554-37.013l-77.554-94.487v131.5zm-99.999-100.38c0 24.031 8.416 46.084 22.445 63.365l77.554-94.487h-100v31.122h1e-3z" fill="#2b5df2"/>
<line x1="201.5" x2="401.5" y1="373.02" y2="373.02" fill="none" stroke="#000" stroke-width="3"/>
<line x1="301.5" x2="301.5" y1="251.19" y2="504.52" fill="none" stroke="#000" stroke-width="3"/>
<line x1="201.5" x2="379.06" y1="251.19" y2="467.51" fill="none" stroke="#000" stroke-width="3"/>
<line x1="401.5" x2="223.94" y1="251.19" y2="467.51" fill="none" stroke="#000" stroke-width="3"/>
<path d="m201.5 251.19v152.96c0 55.438 44.771 100.38 100 100.38s100-44.939 100-100.38v-152.96" fill="none" stroke="#000" stroke-width="3"/>
<line x1="1.5" x2="601.5" y1="251.19" y2="251.19" fill="none" stroke="#000" stroke-width="3"/>
</g>
<g>
<path d="m1.5 1.5v458.87c0 166.31 134.31 301.13 300 301.13 165.69 0 300-134.82 300-301.13v-458.87h-600z" fill="url(#a)"/>
<path d="m1.5 1.5v458.87c0 166.31 134.31 301.13 300 301.13 165.69 0 300-134.82 300-301.13v-458.87h-600z" fill="none" stroke="#000" stroke-width="3"/>
</g>
</svg>

<?xml version="1.0" encoding="UTF-8" standalone="no"?>
<!-- Created with Inkscape (http://www.inkscape.org/) -->
<svg
   xmlns:svg="http://www.w3.org/2000/svg"
   xmlns="http://www.w3.org/2000/svg"
   xmlns:xlink="http://www.w3.org/1999/xlink"
   version="1.0"
   width="603"
   height="763"
   id="svg20">
  <defs
     id="defs29">
    <linearGradient
       id="linearGradient2893">
      <stop
         id="stop2895"
         style="stop-color:#ffffff;stop-opacity:0.3137255"
         offset="0" />
      <stop
         id="stop2897"
         style="stop-color:#ffffff;stop-opacity:0.25098041"
         offset="0.19" />
      <stop
         id="stop2901"
         style="stop-color:#6b6b6b;stop-opacity:0.1254902"
         offset="0.60000002" />
      <stop
         id="stop2899"
         style="stop-color:#000000;stop-opacity:0.1254902"
         offset="1" />
    </linearGradient>
    <linearGradient
       id="linearGradient2955">
      <stop
         id="stop2965"
         style="stop-color:#ffffff;stop-opacity:0"
         offset="0" />
      <stop
         id="stop2959"
         style="stop-color:#000000;stop-opacity:0.64583331"
         offset="1" />
    </linearGradient>
    <radialGradient
       cx="858.04236"
       cy="579.93323"
       r="300"
       fx="858.04236"
       fy="579.93323"
       id="radialGradient3236"
       xlink:href="#linearGradient2893"
       gradientUnits="userSpaceOnUse"
       gradientTransform="matrix(1.215027,0,0,1.266667,-839.1924,-490.4894)" />
  </defs>
  <desc
     id="desc22">Coat of Arms of Canton of Freiburg (Fribourg)</desc>
  <g
     id="layer1"
     style="opacity:1;display:inline">
    <path
       d="M 1.5,1.5 L 1.5,460.369 C 1.5,626.68 135.814,761.5 301.5,761.5 C 467.188,761.5 601.5,626.68 601.5,460.369 L 601.5,1.5 L 1.5,1.5 z"
       id="path2563"
       style="opacity:1;fill:#ffffff" />
    <path
       d="M 1.5,251.188 L 1.5,460.369 C 1.5,626.68 135.814,761.5 301.5,761.5 C 467.188,761.5 601.5,626.68 601.5,460.369 L 601.5,251.188 L 1.5,251.188 z"
       id="path2565"
       style="opacity:1;fill:#e20909" />
  </g>
  <g
     id="layer2"
     style="opacity:1;display:inline">
    <g
       id="g2567">
      <path
         d="M 201.5,251.188 L 201.5,404.144 C 201.5,459.582 246.271,504.521 301.5,504.521 C 356.729,504.521 401.5,459.582 401.5,404.144 L 401.5,251.188 L 201.5,251.188 z"
         id="path1899_8_"
         style="fill:#ffffff" />
      <path
         d="M 301.499,373.021 L 401.499,373.021 L 401.499,251.188 L 301.499,373.021 z M 201.5,251.188 L 301.5,373.021 L 301.5,251.188 L 201.5,251.188 z M 301.499,504.521 C 332.787,504.521 360.718,490.092 379.053,467.508 L 301.499,373.021 L 301.499,504.521 L 301.499,504.521 z M 201.5,404.143 C 201.5,428.174 209.916,450.227 223.945,467.508 L 301.499,373.021 L 201.499,373.021 L 201.499,404.143 L 201.5,404.143 z"
         id="path2472_1_"
         style="fill:#2b5df2" />
      <line
         style="fill:none;stroke:#000000;stroke-width:3"
         id="line2478"
         x1="201.5"
         y1="373.02103"
         x2="401.49899"
         y2="373.02103" />
      <line
         style="fill:none;stroke:#000000;stroke-width:3"
         id="line2480"
         x1="301.49899"
         y1="251.188"
         x2="301.49899"
         y2="504.52103" />
      <line
         style="fill:none;stroke:#000000;stroke-width:3"
         id="line2482"
         x1="201.5"
         y1="251.188"
         x2="379.056"
         y2="467.51202" />
      <line
         style="fill:none;stroke:#000000;stroke-width:3"
         id="line2484"
         x1="401.49899"
         y1="251.188"
         x2="223.94101"
         y2="467.51202" />
      <path
         d="M 201.5,251.188 L 201.5,404.144 C 201.5,459.582 246.271,504.521 301.5,504.521 C 356.729,504.521 401.5,459.582 401.5,404.144 L 401.5,251.188"
         id="path3239_9_"
         style="fill:none;stroke:#000000;stroke-width:3" />
    </g>
    <line
       y2="251.188"
       x2="601.49701"
       y1="251.188"
       x1="1.500003"
       id="line2592"
       style="fill:none;stroke:#000000;stroke-width:3" />
  </g>
  <g
     id="layer3"
     style="display:inline">
    <path
       d="M 1.5,1.5 L 1.5,460.3679 C 1.5,626.67854 135.81454,761.5 301.49993,761.5 C 467.1854,761.5 601.5,626.67854 601.5,460.3679 L 601.5,1.5 L 1.5,1.5 z"
       id="path2346"
       style="fill:url(#radialGradient3236);fill-opacity:1" />
  </g>
  <g
     id="layer4"
     style="display:inline">
    <path
       d="M 1.5,1.5 L 1.5,460.36794 C 1.5,626.67854 135.81454,761.5 301.49993,761.5 C 467.1854,761.5 601.5,626.67854 601.5,460.36794 L 601.5,1.5 L 1.5,1.5 z"
       id="path3239"
       style="fill:none;fill-opacity:1;stroke:#000000;stroke-width:3;stroke-miterlimit:4;stroke-dasharray:none;stroke-opacity:1" />
  </g>
</svg>
